iconsax/twotone-cpu.svg

<svg width="24" height="24" fill="none" xmlns="http://www.w3.org/2000/svg" viewBox="0 0 24 24">
  <path d="M9.6 20h4.8c4 0 5.6-1.6 5.6-5.6V9.6c0-4-1.6-5.6-5.6-5.6H9.6C5.6 4 4 5.6 4 9.6v4.8c0 4 1.6 5.6 5.6 5.6z" stroke="#292D32" stroke-width="1.5" stroke-linecap="round" stroke-linejoin="round"/>
  <path opacity=".4" d="M10.5 17h3c2.5 0 3.5-1 3.5-3.5v-3C17 8 16 7 13.5 7h-3C8 7 7 8 7 10.5v3C7 16 8 17 10.5 17zM8.01 4V2M12 4V2m4 2V2m4 6h2m-2 4h2m-2 4h2m-6 4v2m-3.99-2v2m-4-2v2M2 8h2m-2 4h2m-2 4h2" stroke="#292D32" stroke-width="1.5" stroke-linecap="round" stroke-linejoin="round"/>
</svg>

<svg width="24" height="24" fill="none" xmlns="http://www.w3.org/2000/svg" viewBox="0 0 24 24"><path d="M9.6 20h4.8c4 0 5.6-1.6 5.6-5.6V9.6c0-4-1.6-5.6-5.6-5.6H9.6C5.6 4 4 5.6 4 9.6v4.8c0 4 1.6 5.6 5.6 5.6z" stroke="currentColor" stroke-width="1.5" stroke-linecap="round" stroke-linejoin="round"/><path opacity=".4" d="M10.5 17h3c2.5 0 3.5-1 3.5-3.5v-3C17 8 16 7 13.5 7h-3C8 7 7 8 7 10.5v3C7 16 8 17 10.5 17zM8.01 4V2M12 4V2M16 4V2M20 8h2M20 12h2M20 16h2M16 20v2M12.01 20v2M8.01 20v2M2 8h2M2 12h2M2 16h2" stroke="currentColor" stroke-width="1.5" stroke-linecap="round" stroke-linejoin="round"/></svg>
